X:1
T:Title
%%score [ ( 1 2 ) ( 3 4 ) ] { ( 5 6 ) | ( 7 8 ) }
L:1/8
Q:1/4=120
M:4/4
K:E
V:1 treble nm="Midi_74"
V:2 treble 
V:3 bass nm="Midi_74"
V:4 bass 
V:5 treble nm="Org."
V:6 treble 
V:7 bass 
V:8 bass 
V:1
 G8 |"^Double counterpoint." (A2 B2) (c2 d2) | e8 || E8 | A4 A4 | A4 G4 |{G} F8 || E8 | %8
 (c2 B2) A4 | G8 || e8 | (d2 c2)"^William Henry Havergal\n(1793-1870)" (B2 A2) | G4 F4 | E8 |] %14
V:2
 E8 | (A2 G2) (A2 F2) | E8 || E8 | (F2 G2) (F2 E2) | D4 E4 |{E} D8 || E8 | (E2 D2) (C2 B,2) | %9
 B,8 || G8 | A4 (G2 F2) | E4 D4 | E8 |] %14
V:3
 B,8 | E4 (E2 A,2) | B,8 || B,8 | A,4 A,4 | B,4 B,4 | B,8 || B,8 | (C2 D2) (E2 F2) | E8 || E8 | %11
 E4 C4 | B,4 (B,2 A,2) | G,8 |] %14
V:4
 E,8 | (C2 B,2) A,4 | G,8 || G,8 | (F,2 E,2) (D,2 C,2) | B,,4 E,4 | B,,8 || G,,8 | %8
 (A,,2 B,,2) (C,2 D,2) | E,8 || E,8 | A,4 A,4 | B,4 B,,4 | E,8 |] %14
V:5
 G8 | A2 [GB]2 [Ec]2 [Fd]2 | [Be]8 || E8 | A4 A4 | A4 G4 |{G} F8 || E8 | c2 B2 A4 | G8 || e8 | %11
 d2 c2 [GB]2 [FA]2 | G4 F4 | E8 |] %14
V:6
 [B,E]8 | E4 A4 | E8 || E8 | F2 G2 F2 E2 | D4 E4 |{E} D8 || [B,E]8 | [CE]2 D2 [CE]2 [B,F]2 | %9
 [B,E]8 || [EG]8 | [EA]4 C4 | E4 D4 | E8 |] %14
V:7
 x8 | x8 | x8 || x8 | A,4 A,4 | B,4 B,4 | B,8 || x8 | x8 | x8 || x8 | x8 | x4 B,2 A,2 | G,8 |] %14
V:8
 E,8 | C2 B,2 A,4 | G,8 || [G,B,]8 | F,2 E,2 D,2 C,2 | B,,4 E,4 | B,,8 || G,,8 | %8
 A,,2 B,,2 C,2 D,2 | E,8 || E,8 | A,4 A,4 | B,4 B,,4 | E,8 |] %14

